X:249
M:3/4
L:1/4
K:D
F/E/ | (D3/2 E/) F/G/ | A2 B/c/ | .(d c) B | A2 B/c/ | .(d c) B | .(A B) c | .(d A) G | F2 F/E/ | (D3/2 E/) F/G/ | A2 B/c/ | .(d c) B | A2 B/c/ | .(d c) B | .(A B) c | .(d A) G | F2 F/E/ | (D3/2 E/) F/G/ | A2 d/c/ | B2 B | (A2 A) | !sintro!d c B | (A B) c | (d A) G | F2 !eintro!|]
